X: 118
T: No_76_Two_Sides_of_the_Heavens.krn
N: Derived from No_76_Two_Sides_of_the_Heavens.krn
%%abc-version 2.0
%%abcx-abcm2ps-target-version 5.9.1 (29 Sep 2008)
%%abc-creator hum2abc beta
%%abcx-conversion-date 2019/03/15 08:35:45
%%humdrum-veritas 4274656473
%%humdrum-veritas-data 1985847226
%%linebreak <none>
%%barnumbers 0
L: 1/8
M: 3/4
K: G clef=bass
[K:clef=bass][M:3/4]z4z D ]|:  
D3/D/ D3/D/ E3/D/ | 
D4C3/B,/ ||  
[M:2/4]A,3/A,/ G, z ||  
[M:3/4]A,4A,3/A,/ ||  
[M:2/4]G,3/F,/ E, z ||  
[M:3/4]G,4G,3/F,/ ||  
[M:2/4]E,3/D,/D,2 ||  
[M:3/4]D,4D, z | 
A,/A,A,/A,2B,/B,B,/ | 
A,4A,3/A,/ ||  
[M:2/4]G,3/F,/E,2 ||  
[M:3/4]G,4G,3/F,/ ||  
[M:2/4]E,3/D,/D,2 | 
D,2D, z/ D/ :|]  
D,2D, z |]  



